static/logos/opera-glyph-color.svg

<svg width="32" height="32" viewBox="0 0 32 32" fill="none" xmlns="http://www.w3.org/2000/svg">
<path d="M11.3953 23.8859C9.84219 22.0594 8.84688 19.3578 8.78125 16.3281V15.6719C8.84688 12.6422 9.85313 9.94063 11.3953 8.11406C13.4078 5.51094 16.3609 4.34062 19.6969 4.34062C21.7531 4.34062 23.6891 4.48281 25.3297 5.57656C22.8688 3.35625 19.6203 2.01094 16.0547 2H16C8.26719 2 2 8.26719 2 16C2 23.5031 7.90625 29.6391 15.3328 29.9891C15.5516 30 15.7812 30 16 30C19.5875 30 22.8578 28.6547 25.3297 26.4344C23.6891 27.5281 21.8625 27.5719 19.8063 27.5719C16.4813 27.5828 13.3969 26.5 11.3953 23.8859V23.8859Z" fill="url(#paint0_linear_1261_21)"/>
<path d="M11.3953 8.11407C12.675 6.59376 14.3375 5.68595 16.1531 5.68595C20.2328 5.68595 23.5359 10.3016 23.5359 16.011C23.5359 21.7203 20.2328 26.336 16.1531 26.336C14.3375 26.336 12.6859 25.4172 11.3953 23.9078C13.4078 26.511 16.3938 28.1735 19.7188 28.1735C21.7641 28.1735 23.6891 27.55 25.3297 26.4563C28.1953 23.875 30 20.1453 30 16C30 11.8547 28.1953 8.12501 25.3297 5.56564C23.6891 4.47189 21.775 3.84845 19.7188 3.84845C16.3828 3.84845 13.3969 5.50001 11.3953 8.11407V8.11407Z" fill="url(#paint1_linear_1261_21)"/>
<defs>
<linearGradient id="paint0_linear_1261_21" x1="13.6655" y1="2.4564" x2="13.6655" y2="29.5926" gradientUnits="userSpaceOnUse">
<stop offset="0.3" stop-color="#FF1B2D"/>
<stop offset="0.4381" stop-color="#FA1A2C"/>
<stop offset="0.5939" stop-color="#ED1528"/>
<stop offset="0.7581" stop-color="#D60E21"/>
<stop offset="0.9272" stop-color="#B70519"/>
<stop offset="1" stop-color="#A70014"/>
</linearGradient>
<linearGradient id="paint1_linear_1261_21" x1="20.6958" y1="4.05594" x2="20.6958" y2="28.0564" gradientUnits="userSpaceOnUse">
<stop stop-color="#9C0000"/>
<stop offset="0.7" stop-color="#FF4B4B"/>
</linearGradient>
</defs>
</svg>

<svg xmlns="http://www.w3.org/2000/svg" width="64" height="64" fill="none" viewBox="0 0 32 32"><path fill="url(#a)" d="M11.395 23.886c-1.553-1.827-2.548-4.528-2.614-7.558v-.656c.066-3.03 1.072-5.731 2.614-7.558 2.013-2.603 4.966-3.773 8.302-3.773 2.056 0 3.992.142 5.633 1.236A13.85 13.85 0 0 0 16.055 2H16C8.267 2 2 8.267 2 16c0 7.503 5.906 13.64 13.333 13.99.219.01.448.01.667.01a13.9 13.9 0 0 0 9.33-3.566c-1.64 1.094-3.467 1.138-5.524 1.138-3.325.01-6.41-1.072-8.41-3.686"/><path fill="url(#b)" d="M11.395 8.114c1.28-1.52 2.943-2.428 4.758-2.428 4.08 0 7.383 4.616 7.383 10.325 0 5.71-3.303 10.325-7.383 10.325-1.815 0-3.467-.919-4.758-2.428 2.013 2.603 4.999 4.265 8.324 4.265 2.045 0 3.97-.623 5.61-1.717C28.196 23.875 30 20.146 30 16c0-4.145-1.805-7.875-4.67-10.434a10.05 10.05 0 0 0-5.611-1.718c-3.336 0-6.322 1.652-8.324 4.266"/><defs><linearGradient id="a" x1="13.665" x2="13.665" y1="2.456" y2="29.593" gradientUnits="userSpaceOnUse"><stop offset=".3" stop-color="#FF1B2D"/><stop offset=".438" stop-color="#FA1A2C"/><stop offset=".594" stop-color="#ED1528"/><stop offset=".758" stop-color="#D60E21"/><stop offset=".927" stop-color="#B70519"/><stop offset="1" stop-color="#A70014"/></linearGradient><linearGradient id="b" x1="20.696" x2="20.696" y1="4.056" y2="28.056" gradientUnits="userSpaceOnUse"><stop stop-color="#9C0000"/><stop offset=".7" stop-color="#FF4B4B"/></linearGradient></defs></svg>
